icon-themes/elementary_svg/cmd/sc_exportdirecttopdf.svg

<svg height="16" width="16" xmlns="http://www.w3.org/2000/svg" xmlns:xlink="http://www.w3.org/1999/xlink"><linearGradient id="a"><stop offset="0" stop-color="#fff"/><stop offset=".99017823" stop-color="#ff9f9f" stop-opacity=".871324"/><stop offset="1" stop-color="#fff" stop-opacity=".156863"/><stop offset="1" stop-color="#febcbc" stop-opacity=".392157"/></linearGradient><linearGradient id="b" gradientTransform="matrix(.28571361 0 0 .30419701 1.142873 .232605)" gradientUnits="userSpaceOnUse" x1="25.132275" x2="25.132275" y1=".985206" y2="47.013336"><stop offset="0" stop-color="#f89b7e"/><stop offset=".26238" stop-color="#e35d4f"/><stop offset=".66093999" stop-color="#c6262e"/><stop offset="1" stop-color="#690b2c"/></linearGradient><linearGradient id="c" gradientTransform="matrix(.25378586 0 0 .30501865 19.128979 -.685477)" gradientUnits="userSpaceOnUse" x1="-51.786404" x2="-51.786404" y1="50.786446" y2="2.906247"><stop offset="0" stop-color="#ae0000" stop-opacity=".960784"/><stop offset="1" stop-color="#b20000" stop-opacity=".494118"/></linearGradient><radialGradient id="d" cx="8.276144" cy="9.994116" gradientTransform="matrix(0 2.5645243 -2.8983276 0 36.991821 -24.485687)" gradientUnits="userSpaceOnUse" r="12.671875"><stop offset="0" stop-color="#f4f4f4"/><stop offset="1" stop-color="#dbdbdb"/></radialGradient><linearGradient id="e" gradientTransform="matrix(.24324054 0 0 .35134798 2.161459 -.432362)" gradientUnits="userSpaceOnUse" x1="23.99999" x2="23.99999" xlink:href="#a" y1="6.185116" y2="41.814945"/><linearGradient id="f" gradientUnits="userSpaceOnUse" x1="7.122792" x2="7.007569" xlink:href="#a" y1="-5.470984" y2="4.692178"/><path d="m3 1c2.2915074 0 9.999988.0008904 9.999988.0008904l.000012 13.9991096s-6.6666668 0-10 0c0-4.666666 0-9.3333336 0-14z" fill="url(#b)"/><path d="m12.5 14.5h-9.0000001v-13h9.0000001z" fill="none" stroke="url(#f)" stroke-linecap="round" stroke-opacity=".870588"/><path d="m2.4999621.49997396c2.5206756 0 11.0000629.000954 11.0000629.000954l.000013 14.99909804s-7.3333841 0-11.000076 0c0-5.000017 0-10.000035 0-15.00005204z" fill="none" stroke="url(#c)" stroke-linejoin="round" stroke-width=".999922"/><path d="m9.277174 1.0000001c-2.923595 2.785415-4.992324 3.942359-6.277174 4.420259v1.478448c.714076-.233471 1.599342-.619164 2.52038-1.259698 2.11904-1.473684 4.64674-4.269396 4.64674-4.269396-.694786 1.513247-.896901 6.73017-.910326 13.6303869h3.743206l-.04794-1.866248c-.164184-.811487-.957816-5.1488069-1.0887-5.9376049-.344776-2.905015.260388-5.3465831.44914-6.1648971-.04911-.000005-1.61047-.031085-3.035326-.03125zm-6.277174 7.686422v1.4256469c1.631445.747709 3.523823 2.675395 4.558424 4.887931h1.11413c-.490311-2.028702-3.66792-5.0887079-5.672554-6.3135779z" fill="url(#d)"/><path d="m12.3125 1.03125c-1.379115 1.1426409-5.9033863 4.5971408-9.3125 4.15625v3.15625s7.072543 1.4589543 10-1.1875v-6.0625c-.07417-.051631-.160615-.0625-.25-.0625zm.65625 7.5625c-1.305828 1.793247-2.608733 4.060196-3.5 6.40625h1.125c.690809-1.542126 1.561646-3.227005 2.375-4.40625z" fill="#fff6f6" fill-rule="evenodd" opacity=".1"/><g fill="none"><path d="m3.4992804 5.5202017v1.401819m5.656969 7.5779293h3.3429306v-5.4478063m-.0055-7.5520934h-3.4382436m-5.556188 7.2148914v1.3318833m4.038627 4.453125h1.049207" opacity=".3" stroke="url(#e)" stroke-linecap="round"/><path d="m2.5 5.315775v1.50405m6.831371 8.680175h4.168629v-5.777528m-.34468-9.22196402-3.817416-.000508m-6.837904 8.24935902v1.434608m5.05633 5.306092 1.149386.0099" opacity=".2" stroke="#410000" stroke-linejoin="round"/></g></svg>

<?xml version="1.0" encoding="UTF-8" standalone="no"?>
<svg
   xmlns:dc="http://purl.org/dc/elements/1.1/"
   xmlns:cc="http://creativecommons.org/ns#"
   xmlns:rdf="http://www.w3.org/1999/02/22-rdf-syntax-ns#"
   xmlns:svg="http://www.w3.org/2000/svg"
   xmlns="http://www.w3.org/2000/svg"
   xmlns:xlink="http://www.w3.org/1999/xlink"
   xmlns:sodipodi="http://sodipodi.sourceforge.net/DTD/sodipodi-0.dtd"
   xmlns:inkscape="http://www.inkscape.org/namespaces/inkscape"
   version="1.1"
   width="16"
   height="16"
   id="svg3810"
   sodipodi:docname="sc_exportdirecttopdf.svg"
   inkscape:version="0.92.3 (unknown)"
   inkscape:export-filename="/home/rizmut/Dokumen/Rizmut/Github/libreoffice-style-elementary/images_elementary/cmd/sc_exportdirecttopdf.png"
   inkscape:export-xdpi="96"
   inkscape:export-ydpi="96">
  <sodipodi:namedview
     pagecolor="#ffffff"
     bordercolor="#666666"
     borderopacity="1"
     objecttolerance="10"
     gridtolerance="10"
     guidetolerance="10"
     inkscape:pageopacity="0"
     inkscape:pageshadow="2"
     inkscape:window-width="1366"
     inkscape:window-height="706"
     id="namedview33"
     showgrid="false"
     inkscape:zoom="20.85965"
     inkscape:cx="8.4768192"
     inkscape:cy="9.9052923"
     inkscape:window-x="0"
     inkscape:window-y="0"
     inkscape:window-maximized="1"
     inkscape:current-layer="svg3810" />
  <defs
     id="defs3812">
    <linearGradient
       x1="23.99999"
       y1="6.9230647"
       x2="23.99999"
       y2="41.076912"
       id="linearGradient3988"
       xlink:href="#linearGradient3977"
       gradientUnits="userSpaceOnUse"
       gradientTransform="matrix(0.24324324,0,0,0.35135133,2.1621636,-0.43242804)" />
    <linearGradient
       id="linearGradient3977">
      <stop
         id="stop3979"
         style="stop-color:#ffffff;stop-opacity:1"
         offset="0" />
      <stop
         id="stop3981"
         style="stop-color:#ff9f9f;stop-opacity:0.87132353"
         offset="0.99017823" />
      <stop
         id="stop3983"
         style="stop-color:#ffffff;stop-opacity:0.15686275"
         offset="1" />
      <stop
         id="stop3985"
         style="stop-color:#febcbc;stop-opacity:0.39215687"
         offset="1" />
    </linearGradient>
    <linearGradient
       id="linearGradient3600">
      <stop
         id="stop3602"
         style="stop-color:#f4f4f4;stop-opacity:1"
         offset="0" />
      <stop
         id="stop3604"
         style="stop-color:#dbdbdb;stop-opacity:1"
         offset="1" />
    </linearGradient>
    <linearGradient
       x1="25.132275"
       y1="0.98520643"
       x2="25.132275"
       y2="47.013336"
       id="linearGradient3806"
       xlink:href="#linearGradient3242-4-8"
       gradientUnits="userSpaceOnUse"
       gradientTransform="matrix(0.28571361,0,0,0.30419701,1.1428727,0.2326048)" />
    <linearGradient
       id="linearGradient3104-9">
      <stop
         id="stop3106-5"
         style="stop-color:#ae0000;stop-opacity:0.96078432"
         offset="0" />
      <stop
         id="stop3108-5"
         style="stop-color:#b20000;stop-opacity:0.49411765"
         offset="1" />
    </linearGradient>
    <linearGradient
       x1="-51.786404"
       y1="50.786446"
       x2="-51.786404"
       y2="2.9062471"
       id="linearGradient3019"
       xlink:href="#linearGradient3104-9"
       gradientUnits="userSpaceOnUse"
       gradientTransform="matrix(0.25378586,0,0,0.30501865,19.128979,-0.68547704)" />
    <radialGradient
       r="12.671875"
       fy="9.9941158"
       fx="8.276144"
       cy="9.9941158"
       cx="8.276144"
       gradientTransform="matrix(0,2.5645243,-2.8983276,0,36.991821,-24.485687)"
       gradientUnits="userSpaceOnUse"
       id="radialGradient3411"
       xlink:href="#linearGradient3600" />
    <linearGradient
       id="linearGradient3242-4-8">
      <stop
         offset="0"
         style="stop-color:#f89b7e;stop-opacity:1"
         id="stop3244-7-5" />
      <stop
         offset="0.26238"
         style="stop-color:#e35d4f;stop-opacity:1"
         id="stop3246-1-3" />
      <stop
         offset="0.66093999"
         style="stop-color:#c6262e;stop-opacity:1"
         id="stop3248-5-7" />
      <stop
         offset="1"
         style="stop-color:#690b2c;stop-opacity:1"
         id="stop3250-7-0" />
    </linearGradient>
    <linearGradient
       y2="41.814945"
       x2="23.99999"
       y1="6.1851163"
       x1="23.99999"
       gradientTransform="matrix(0.24324054,0,0,0.35134798,2.1614594,-0.43236222)"
       gradientUnits="userSpaceOnUse"
       id="linearGradient3132"
       xlink:href="#linearGradient3977" />
    <linearGradient
       inkscape:collect="always"
       xlink:href="#linearGradient3977"
       id="linearGradient868"
       x1="7.1227922"
       y1="-5.4709835"
       x2="7.0075693"
       y2="4.6921782"
       gradientUnits="userSpaceOnUse" />
  </defs>
  <metadata
     id="metadata3815">
    <rdf:RDF>
      <cc:Work
         rdf:about="">
        <dc:format>image/svg+xml</dc:format>
        <dc:type
           rdf:resource="http://purl.org/dc/dcmitype/StillImage" />
        <dc:title></dc:title>
      </cc:Work>
    </rdf:RDF>
  </metadata>
  <path
     style="display:inline;fill:url(#linearGradient3806);fill-opacity:1.0;stroke:none"
     id="path4160"
     d="m 3,1 c 2.2915074,0 9.999988,8.904e-4 9.999988,8.904e-4 L 13,15 C 13,15 6.3333332,15 3,15 3,10.333334 3,5.6666664 3,1 Z" />
  <path
     style="fill:none;stroke:url(#linearGradient868);stroke-width:1;stroke-linecap:round;stroke-linejoin:miter;stroke-miterlimit:4;stroke-dasharray:none;stroke-dashoffset:0;stroke-opacity:0.87058824"
     id="rect6741-1"
     d="m 12.5,14.5 -9.0000001,0 0,-13 L 12.5,1.5 Z"
     clip-path="none"
     mask="none" />
  <path
     style="display:inline;fill:none;stroke:url(#linearGradient3019);stroke-width:0.99992192;stroke-linecap:butt;stroke-linejoin:round;stroke-miterlimit:4;stroke-dasharray:none;stroke-dashoffset:0;stroke-opacity:1"
     id="path4160-8"
     d="m 2.4999621,0.49997396 c 2.5206756,0 11.0000629,9.54e-4 11.0000629,9.54e-4 l 1.3e-5,14.99909804 c 0,0 -7.3333841,0 -11.000076,0 0,-5.000017 0,-10.000035 0,-15.00005204 z" />
  <path
     style="color:#000000;clip-rule:nonzero;display:inline;overflow:visible;visibility:visible;opacity:1;isolation:auto;mix-blend-mode:normal;color-interpolation:sRGB;color-interpolation-filters:linearRGB;solid-color:#000000;solid-opacity:1;fill:url(#radialGradient3411);fill-opacity:1;fill-rule:nonzero;stroke:none;stroke-width:0.99999994;stroke-linecap:butt;stroke-linejoin:miter;stroke-miterlimit:4;stroke-dasharray:none;stroke-dashoffset:0;stroke-opacity:1;marker:none;color-rendering:auto;image-rendering:auto;shape-rendering:auto;text-rendering:auto;enable-background:accumulate"
     d="M 9.277174,1.0000001 C 6.353579,3.7854151 4.28485,4.9423591 3,5.4202591 v 1.478448 C 3.714076,6.6652361 4.599342,6.2795431 5.52038,5.6390091 7.63942,4.1653251 10.16712,1.3696131 10.16712,1.3696131 9.472334,2.8828601 9.270219,8.0997831 9.256794,15 H 13 l -0.04794,-1.866248 C 12.787876,12.322265 11.994244,7.9849451 11.86336,7.1961471 11.518584,4.2911321 12.123748,1.849564 12.3125,1.03125 c -0.04911,-5e-6 -1.61047,-0.031085 -3.035326,-0.03125 z M 3,8.6864221 V 10.112069 C 4.631445,10.859778 6.523823,12.787464 7.558424,15 h 1.11413 C 8.182243,12.971298 5.004634,9.9112921 3,8.6864221 Z"
     id="path6711"
     inkscape:connector-curvature="0"
     sodipodi:nodetypes="cccscccccccccccc" />
  <path
     style="color:#000000;display:inline;overflow:visible;visibility:visible;opacity:0.1;fill:#fff6f6;fill-opacity:1;fill-rule:evenodd;stroke:none;stroke-width:1;marker:none;enable-background:accumulate;clip-rule:nonzero;isolation:auto;mix-blend-mode:normal;color-interpolation:sRGB;color-interpolation-filters:linearRGB;solid-color:#000000;solid-opacity:1;stroke-linecap:butt;stroke-linejoin:miter;stroke-miterlimit:4;stroke-dasharray:none;stroke-dashoffset:0;stroke-opacity:1;filter-blend-mode:normal;filter-gaussianBlur-deviation:0;color-rendering:auto;image-rendering:auto;shape-rendering:auto;text-rendering:auto"
     d="M 12.3125,1.03125 C 10.933385,2.1738909 6.4091137,5.6283908 3,5.1875 l 0,3.15625 c 0,0 7.072543,1.4589543 10,-1.1875 l 0,-6.0625 C 12.92583,1.042119 12.839385,1.03125 12.75,1.03125 l -0.4375,0 z m 0.65625,7.5625 c -1.305828,1.793247 -2.608733,4.060196 -3.5,6.40625 l 1.125,0 c 0.690809,-1.542126 1.561646,-3.227005 2.375,-4.40625 l 0,-2 z"
     id="path6713-2" />
  <path
     style="opacity:0.3;fill:none;stroke:url(#linearGradient3132);stroke-width:1;stroke-linecap:round;stroke-linejoin:miter;stroke-miterlimit:4;stroke-dasharray:none;stroke-dashoffset:0;stroke-opacity:1"
     d="m 3.4992804,5.5202017 0,1.401819 m 5.656969,7.5779293 3.3429306,0 0,-5.4478063 m -0.0055,-7.5520934 -3.4382436,0 m -5.556188,7.2148914 0,1.3318833 m 4.038627,4.453125 1.049207,0"
     id="rect6741-1-8-0" />
  <path
     style="color:#000000;display:inline;overflow:visible;visibility:visible;opacity:0.2;fill:none;stroke:#410000;stroke-width:1;stroke-linecap:butt;stroke-linejoin:round;stroke-miterlimit:4;stroke-dasharray:none;stroke-dashoffset:0;stroke-opacity:1;marker:none;enable-background:accumulate"
     d="m 2.5,5.315775 0,1.50405 M 9.331371,15.5 13.5,15.5 13.5,9.722472 M 13.15532,0.50050798 9.337904,0.49999998 M 2.5,8.749359 l 0,1.434608 m 5.05633,5.306092 1.149386,0.0099"
     id="path4160-6-1-0" />
</svg>
